material/.icons/material/cloud-sync.svg

<svg xmlns="http://www.w3.org/2000/svg" viewBox="0 0 24 24"><path d="M19 12v1.5c2.21 0 4 1.79 4 4 0 .82-.25 1.58-.67 2.21l-1.09-1.09c.17-.34.26-.72.26-1.12A2.5 2.5 0 0019 15v1.5l-2.25-2.25-.03-.03c.06-.05.13-.09 2.28-2.22m0 11v-1.5c-2.21 0-4-1.79-4-4 0-.82.25-1.58.67-2.21l1.09 1.09c-.17.34-.26.72-.26 1.12A2.5 2.5 0 0019 20v-1.5l2.25 2.25.03.03c-.06.05-.13.09-2.28 2.22m-6-5.5a6.5 6.5 0 016.5-6.5c1.28 0 2.47.38 3.5 1-.87-1.1-2.16-1.86-3.65-1.97A7.49 7.49 0 0012 4C9.11 4 6.6 5.64 5.35 8.03A6.004 6.004 0 006 20h7.5c-.32-.77-.5-1.61-.5-2.5z"/></svg>

<?xml version="1.0" encoding="UTF-8"?><!DOCTYPE svg PUBLIC "-//W3C//DTD SVG 1.1//EN" "http://www.w3.org/Graphics/SVG/1.1/DTD/svg11.dtd"><svg xmlns="http://www.w3.org/2000/svg" xmlns:xlink="http://www.w3.org/1999/xlink" version="1.1" id="mdi-cloud-sync" width="24" height="24" viewBox="0 0 24 24"><path d="M19 12V13.5C21.21 13.5 23 15.29 23 17.5C23 18.32 22.75 19.08 22.33 19.71L21.24 18.62C21.41 18.28 21.5 17.9 21.5 17.5C21.5 16.12 20.38 15 19 15V16.5L16.75 14.25L16.72 14.22C16.78 14.17 16.85 14.13 19 12M19 23V21.5C16.79 21.5 15 19.71 15 17.5C15 16.68 15.25 15.92 15.67 15.29L16.76 16.38C16.59 16.72 16.5 17.1 16.5 17.5C16.5 18.88 17.62 20 19 20V18.5L21.25 20.75L21.28 20.78C21.22 20.83 21.15 20.87 19 23M13 17.5C13 13.91 15.91 11 19.5 11C20.78 11 21.97 11.38 23 12C22.13 10.9 20.84 10.14 19.35 10.03C18.67 6.59 15.64 4 12 4C9.11 4 6.6 5.64 5.35 8.03C2.34 8.36 0 10.9 0 14C0 17.31 2.69 20 6 20H13.5C13.18 19.23 13 18.39 13 17.5Z" /></svg>
